src/icons/solid/film.svg

<svg xmlns="http://www.w3.org/2000/svg" viewBox="0 0 20 20" fill="currentColor">
  <path fill-rule="evenodd" d="M4 3a2 2 0 00-2 2v10a2 2 0 002 2h12a2 2 0 002-2V5a2 2 0 00-2-2H4zm3 2h6v4H7V5zm8 8v2h1v-2h-1zm-2-2H7v4h6v-4zm2 0h1V9h-1v2zm1-4V5h-1v2h1zM5 5v2H4V5h1zm0 4H4v2h1V9zm-1 4h1v2H4v-2z" clip-rule="evenodd"/>
</svg>

<svg width="20" height="20" viewBox="0 0 20 20" fill="none" xmlns="http://www.w3.org/2000/svg">
<path fill-rule="evenodd" clip-rule="evenodd" d="M4 3C2.89543 3 2 3.89543 2 5V15C2 16.1046 2.89543 17 4 17H16C17.1046 17 18 16.1046 18 15V5C18 3.89543 17.1046 3 16 3H4ZM7 5L13 5V9H7V5ZM15 13V15H16V13H15ZM13 11H7V15H13V11ZM15 11H16V9H15V11ZM16 7V5H15V7H16ZM5 5V7H4V5H5ZM5 9H4V11H5V9ZM4 13H5V15H4V13Z" fill="#374151"/>
</svg>
